X: 32679
T: Polca Cefn-Coed
R: polka
M: 2/4
K: Dmajor
|:FA dc/B/|Ad F2|Ec c/B/A/G/|Fd A2|
FA dc/B/|Ad F2|Ec c/B/A/G/|FD D2:|
|:BG GF/G/|AF FA|GE DC|D/E/F/G/ A2|
BG GF/G/|AF FA|GE DC|D2 D2:|

